X:1
T:Drumsheugh
M:C
L:1/8
R:Strathspey
S:Glen Collection, vol. 1 (1891)
Z:AK/Fiddler's Companion
K:D
FDDB d2 df|e>def E/E/E EG|FDDB d2 df|e>def d/d/d d:|
f|afab afdf|edfd e/e/e (ef)|afab afdf|e>def d/d/d df|
afab afdf|edfd e/e/e (ea)|bfae fdec|dBAF d2 df||

